X: 43
T:Champion Jig
% Nottingham Music Database
S:EF
M:6/8
K:Em
P:A
|:B|"Em"Bef gfe|"Em"bef gfe|"B7"f^dB fdB|"B7"bc'b agf|
"Em"Bef gfe|"Em"bef gfe|"B7"b3 b2a|[1"Em"gee e2:|[2 "Em" gee e3|
"Em"\
P:B
|:d3 "D7"c3|"G"Bdg bgd|"D7"cdf afd|"G"Bdg bgd|
"Em"d3 "D7"c3|"G"Bdg bgd|"D7"cdf afd|"G"gdb g3:|<end>
<start>
